X:1
T:Game of thrones main theme
T:Game of thrones main theme 
T:Ramin Djawadi 
T:Arr. Violin and Guitar Duet
%%score 1 2 3
L:1/8
Q:1/4=90
M:12/8
K:Eb
V:1 treble nm="Violon" snm="Vln."
V:2 treble-8 nm="Guitare classique" snm="Guit."
V:3 treble-8 nm="Guitare classique" snm="Guit."
V:1
"^\n" GCE/F/ GCE/F/ GCE/F/ GCE/F/ |[K:Eb] GC=E/F/ GCE/F/ GCE/F/ GCE/F/ | [G,C]12 | %3
 DG,B,/C/ DG,B,/C/ DG,B,/C/ DG,B, | [B,F]12 | CG,A,/B,/ CG,A,/B,/ CG,A,/B,/ CG,A, | %6
 G3 C3 (E/F/) G2 C2 (E/F/) | D12 | F3 B,3 E/D/ F2 B,3 | E/D/C- C8 z2 | g3 c3 e/f/ g2 c2 e/f/ | %11
 d12 | f2 z B3 d3/2e3/2 d3/2B3/2 | c12 | cEA/B/ cEB/c/ BEG/A/ BEG/B/ | %15
 ACF/G/ ACG/A/ GCE/F/ GCE/F/ | EA,C/D/ EA,D/E/ FA,D/E/ DG,E/F/ | G12 | %18
 cEA/B/ cEB/c/ BEG/A/ BEG/B/ | ACF/G/ ACG/A/ GCE/F/ GCE/F/ | EA,C/D/ EA,D/E/ FA,D/E/ DG,E/D/ | %21
 z3 cGA/B/ c'ga/b/ c'ga/b/ |] %22
V:2
 [CE]2 [CE]/[CE]/ [CE][CE] z [CE]2 [CE]/[CE]/ [CE][CE][CE] | %1
[K:Eb] [C=E]2 [CE]/[CE]/ [CE][CE] z [CE]2 [CE]/[CE]/ [CE][CE][CE] | %2
!fff! G3 C3 (^D/F/) G2 C2 (D/F/) | D3!mp! D3 D3 D3 |!fff! F3 B,3 E/D/ F2 B,3 | %5
 E/D/ C2!mp! C3 C3 C3 |!mf! [CGc]3 [CGc]3 [CGc]3 [CGc]3 | %7
 [G,d]GB/c/ [G,d]GB/c/ [G,d]GB/c/ [G,d]GB | [B,Fd]3 [B,Fd]3 [B,Fd]3 [B,Fd]3 | %9
 [Cc]GA/B/ [Cc]GA/B/ [Cc]GA/B/ [Cc]GA | [Cg]ce/f/ [Cg]ce/f/ [Cg]ce/f/ [Cg]ce/f/ | %11
 [G,d]GB/c/ [G,d]GB/c/ [G,d]GB/c/ [G,d]GB | [F,d]fB/c/ [F,d]fB/c/ [Gd]3/2[Ae]3/2 [Gd]3/2[EB]3/2 | %13
 [Cc]GA/B/ [Cc]GA/B/ [Cc]GA/B/ [Cc]GA | CeA/B/ ceB/c/ B,eG/A/ BeG | Ccf/g/ Acg/a/ Gce/f/ Gce | %16
 A,Ac/d/ EAd/e/ EAd/e/ DGe | [Cc]GA/B/ [Cc]GA/B/ [Cc]GA/B/ [Cc]GA | CeA/B/ ceB/c/ B,eG/A/ BeG | %19
 Ccf/g/ Acg/a/ Gce/f/ Gce | A,Ac/d/ EAd/e/ EAd/e/ DGe | CG,A,/B,/ CG,A,/B,/ CG,A,/B,/ CG,A,/B,/ |] %22
V:3
 z12 |[K:Eb] z12 | z12 | z12 | z12 | z12 | z12 | z12 | z12 | z12 | z12 | z12 | z12 | z12 | %14
!fff! C6!fff! B,6 |!fff! C6!fff! G6 |!fff! A,6!ff! E3 D3 |!fff! z12 |!fff! C6!fff! B,6 | %19
!fff! C6!fff! G6 |!fff! A,6!ff! E3 D3 | z12 |] %22

